packages/kaspersky-hexa-ui-icons/src/iconsSVGs/24/Step.svg

<svg xmlns="http://www.w3.org/2000/svg" width="24" height="24" fill="none" viewBox="0 0 24 24"><path fill="#000" fill-rule="evenodd" d="M15 9H9v6h6zM9 7c-1.1046 0-2 .8954-2 2v6c0 1.1046.8954 2 2 2h6c1.1046 0 2-.8954 2-2V9c0-1.1046-.8954-2-2-2z"/></svg>

<svg width="24" height="24" viewBox="0 0 24 24" fill="none" xmlns="http://www.w3.org/2000/svg">
<path fill-rule="evenodd" clip-rule="evenodd" d="M15 9H9L9 15H15V9ZM9 7C7.89543 7 7 7.89543 7 9V15C7 16.1046 7.89543 17 9 17H15C16.1046 17 17 16.1046 17 15V9C17 7.89543 16.1046 7 15 7H9Z" fill="black"/>
</svg>
